X: 487
T: Tiqi na guafeng
%%abc-version 2.0
%%abcx-abcm2ps-target-version 5.9.1 (29 Sep 2008)
%%abc-creator hum2abc beta
%%abcx-conversion-date 2013/10/02 07:52:30
%%abc-edited-by Helmut Schaffrath
%%humdrum-veritas 749841445
%%humdrum-veritas-data 2747266033
%%continueall 1
%%barnumbers 0
L: 1/16
M: 2/4
K: G
e2 d e B2 A B [I:setbarnb 1]| 
d8 | 
e2 d e B2 A B | 
E8 | 
G E G A B2 B d | 
A8 | 
B2 B E G2 G E | 
D8 |]  



